public/images/car.svg

<svg width="34" height="34" viewBox="0 0 34 34" fill="none" xmlns="http://www.w3.org/2000/svg">
<path d="M7.08333 26.775V28.3687C7.08333 28.7701 6.94757 29.1007 6.67604 29.3604C6.40451 29.6201 6.06806 29.75 5.66667 29.75C5.26528 29.75 4.92882 29.6142 4.65729 29.3427C4.38576 29.0712 4.25 28.7347 4.25 28.3333V17.2125L7.26042 8.14583C7.37847 7.81527 7.57326 7.55555 7.84479 7.36666C8.11632 7.17777 8.42917 7.08333 8.78333 7.08333H25.2167C25.5708 7.08333 25.8837 7.17777 26.1552 7.36666C26.4267 7.55555 26.6215 7.81527 26.7396 8.14583L29.75 17.2125V28.3687C29.75 28.7701 29.6142 29.1007 29.3427 29.3604C29.0712 29.6201 28.7347 29.75 28.3333 29.75C27.9319 29.75 27.5955 29.6142 27.324 29.3427C27.0524 29.0712 26.9167 28.7347 26.9167 28.3333V26.775H7.08333ZM7.18958 15.0875H26.8104L24.8625 9.20833H9.1375L7.18958 15.0875ZM6.375 17.2125V24.65V17.2125ZM10.1292 22.8792C10.6722 22.8792 11.1267 22.6903 11.4927 22.3125C11.8587 21.9347 12.0417 21.4861 12.0417 20.9667C12.0417 20.4236 11.8587 19.9573 11.4927 19.5677C11.1267 19.1781 10.6722 18.9833 10.1292 18.9833C9.58611 18.9833 9.11979 19.1781 8.73021 19.5677C8.34062 19.9573 8.14583 20.4236 8.14583 20.9667C8.14583 21.5097 8.34062 21.9642 8.73021 22.3302C9.11979 22.6962 9.58611 22.8792 10.1292 22.8792ZM23.9062 22.8792C24.4493 22.8792 24.9156 22.6903 25.3052 22.3125C25.6948 21.9347 25.8896 21.4861 25.8896 20.9667C25.8896 20.4236 25.6948 19.9573 25.3052 19.5677C24.9156 19.1781 24.4493 18.9833 23.9062 18.9833C23.3632 18.9833 22.9087 19.1781 22.5427 19.5677C22.1767 19.9573 21.9937 20.4236 21.9937 20.9667C21.9937 21.5097 22.1826 21.9642 22.5604 22.3302C22.9382 22.6962 23.3868 22.8792 23.9062 22.8792ZM6.375 24.65H27.625V17.2125H6.375V24.65Z" fill="black"/>
</svg>

<svg xmlns="http://www.w3.org/2000/svg" width="34" height="34" fill="none" viewBox="0 0 34 34"><path fill="#000" d="M7.083 26.775v1.594c0 .401-.135.732-.407.991-.271.26-.608.39-1.01.39a1.37 1.37 0 0 1-1.009-.407 1.37 1.37 0 0 1-.407-1.01v-11.12l3.01-9.067c.118-.33.313-.59.585-.78.271-.188.584-.283.938-.283h16.434a1.6 1.6 0 0 1 .938.284c.272.189.466.448.585.779l3.01 9.066V28.37c0 .401-.136.732-.407.991-.272.26-.608.39-1.01.39a1.37 1.37 0 0 1-1.009-.407 1.37 1.37 0 0 1-.407-1.01v-1.558H7.083zm.107-11.687h19.62l-1.947-5.88H9.136l-1.947 5.88zm-.815 2.124v7.438-7.438zm3.754 5.667c.543 0 .998-.189 1.364-.567.366-.377.549-.826.549-1.345 0-.543-.183-1.01-.55-1.4a1.795 1.795 0 0 0-1.363-.584c-.543 0-1.01.195-1.399.585-.39.39-.584.856-.584 1.399s.195.997.584 1.363c.39.366.856.55 1.4.55zm13.777 0c.543 0 1.01-.189 1.4-.567.389-.377.584-.826.584-1.345a1.91 1.91 0 0 0-.585-1.4 1.909 1.909 0 0 0-1.399-.584c-.543 0-.997.195-1.363.585-.366.39-.55.856-.55 1.399s.19.997.567 1.363c.378.366.827.55 1.346.55zM6.375 24.65h21.25v-7.438H6.375v7.438z"/></svg>
